TileServer und Tiles/svg/9/98_31.svg

<?xml version='1.0' encoding='UTF-8' standalone='no'?>
<svg xmlns="http://www.w3.org/2000/svg" width="497pt" viewBox="0 0 497 279" xmlns:xlink="http://www.w3.org/1999/xlink" height="279pt">
 <defs style="stroke:none;" overflow="visible">
  <path id="glyph0-6" d="M 1.9375 0.09375 C 1.507812 0.09375 1.160156 -0.0546875 0.890625 -0.359375 C 0.617188 -0.671875 0.484375 -1.128906 0.484375 -1.734375 C 0.484375 -2.234375 0.546875 -2.707031 0.671875 -3.15625 C 0.804688 -3.601562 0.988281 -4 1.21875 -4.34375 C 1.445312 -4.6875 1.722656 -4.957031 2.046875 -5.15625 C 2.367188 -5.351562 2.722656 -5.453125 3.109375 -5.453125 C 3.460938 -5.453125 3.75 -5.359375 3.96875 -5.171875 C 4.1875 -4.992188 4.347656 -4.78125 4.453125 -4.53125 L 4.515625 -4.53125 L 4.828125 -5.359375 L 5.5 -5.359375 L 4.359375 0 L 3.65625 0 L 3.796875 -0.984375 L 3.75 -0.984375 C 3.519531 -0.691406 3.25 -0.4375 2.9375 -0.21875 C 2.632812 -0.0078125 2.300781 0.09375 1.9375 0.09375 Z M 2.21875 -0.625 C 2.46875 -0.625 2.707031 -0.710938 2.9375 -0.890625 C 3.175781 -1.078125 3.390625 -1.320312 3.578125 -1.625 C 3.773438 -1.9375 3.925781 -2.28125 4.03125 -2.65625 C 4.082031 -2.851562 4.113281 -3.03125 4.125 -3.1875 C 4.144531 -3.351562 4.15625 -3.507812 4.15625 -3.65625 C 4.15625 -3.96875 4.066406 -4.222656 3.890625 -4.421875 C 3.722656 -4.617188 3.492188 -4.71875 3.203125 -4.71875 C 2.941406 -4.71875 2.703125 -4.632812 2.484375 -4.46875 C 2.265625 -4.3125 2.070312 -4.085938 1.90625 -3.796875 C 1.738281 -3.515625 1.609375 -3.191406 1.515625 -2.828125 C 1.421875 -2.472656 1.375 -2.097656 1.375 -1.703125 C 1.375 -1.347656 1.445312 -1.078125 1.59375 -0.890625 C 1.738281 -0.710938 1.945312 -0.625 2.21875 -0.625 Z M 2.21875 -0.625 "/>
  <path id="glyph0-5" d="M 0.40625 0 L 1.921875 -7.140625 L 2.8125 -7.140625 L 1.453125 -0.796875 L 4.203125 -0.796875 L 4.03125 0 Z M 0.40625 0 "/>
  <path id="glyph0-4" d="M 0.265625 0 L 1.875 -7.59375 L 2.765625 -7.59375 L 2.125 -4.578125 C 2.007812 -4.046875 1.910156 -3.632812 1.828125 -3.34375 C 1.742188 -3.050781 1.6875 -2.859375 1.65625 -2.765625 L 1.671875 -2.765625 L 4.203125 -5.359375 L 5.25 -5.359375 L 2.953125 -3.0625 L 4.375 0 L 3.40625 0 L 2.28125 -2.515625 L 1.5625 -1.9375 L 1.15625 0 Z M 0.265625 0 "/>
  <path id="glyph0-3" d="M 0.28125 0 L 1.890625 -7.59375 L 2.765625 -7.59375 L 2.34375 -5.625 C 2.300781 -5.425781 2.25 -5.21875 2.1875 -5 C 2.125 -4.789062 2.066406 -4.578125 2.015625 -4.359375 L 2.0625 -4.359375 C 2.195312 -4.523438 2.347656 -4.691406 2.515625 -4.859375 C 2.691406 -5.023438 2.890625 -5.164062 3.109375 -5.28125 C 3.335938 -5.394531 3.59375 -5.453125 3.875 -5.453125 C 4.289062 -5.453125 4.617188 -5.335938 4.859375 -5.109375 C 5.109375 -4.878906 5.234375 -4.535156 5.234375 -4.078125 C 5.234375 -3.953125 5.222656 -3.820312 5.203125 -3.6875 C 5.179688 -3.550781 5.15625 -3.410156 5.125 -3.265625 L 4.421875 0 L 3.546875 0 L 4.25 -3.359375 C 4.3125 -3.660156 4.34375 -3.878906 4.34375 -4.015625 C 4.34375 -4.234375 4.285156 -4.40625 4.171875 -4.53125 C 4.066406 -4.65625 3.890625 -4.71875 3.640625 -4.71875 C 3.410156 -4.71875 3.164062 -4.640625 2.90625 -4.484375 C 2.644531 -4.328125 2.398438 -4.070312 2.171875 -3.71875 C 1.953125 -3.363281 1.78125 -2.894531 1.65625 -2.3125 L 1.15625 0 Z M 0.28125 0 "/>
  <path id="glyph0-2" d="M 2.421875 0.09375 C 1.796875 0.09375 1.316406 -0.0820312 0.984375 -0.4375 C 0.648438 -0.800781 0.484375 -1.296875 0.484375 -1.921875 C 0.484375 -2.347656 0.539062 -2.769531 0.65625 -3.1875 C 0.78125 -3.601562 0.957031 -3.984375 1.1875 -4.328125 C 1.425781 -4.671875 1.710938 -4.941406 2.046875 -5.140625 C 2.378906 -5.347656 2.75 -5.453125 3.15625 -5.453125 C 3.664062 -5.453125 4.046875 -5.34375 4.296875 -5.125 C 4.554688 -4.90625 4.6875 -4.597656 4.6875 -4.203125 C 4.6875 -3.859375 4.578125 -3.539062 4.359375 -3.25 C 4.148438 -2.96875 3.8125 -2.738281 3.34375 -2.5625 C 2.882812 -2.394531 2.289062 -2.3125 1.5625 -2.3125 L 1.390625 -2.3125 C 1.378906 -2.257812 1.375 -2.195312 1.375 -2.125 C 1.375 -2.0625 1.375 -2.003906 1.375 -1.953125 C 1.375 -1.546875 1.472656 -1.222656 1.671875 -0.984375 C 1.867188 -0.742188 2.171875 -0.625 2.578125 -0.625 C 2.828125 -0.625 3.066406 -0.660156 3.296875 -0.734375 C 3.523438 -0.804688 3.773438 -0.910156 4.046875 -1.046875 L 4.046875 -0.296875 C 3.785156 -0.179688 3.535156 -0.0859375 3.296875 -0.015625 C 3.054688 0.0546875 2.765625 0.09375 2.421875 0.09375 Z M 1.515625 -3.03125 L 1.59375 -3.03125 C 1.988281 -3.03125 2.351562 -3.0625 2.6875 -3.125 C 3.03125 -3.195312 3.304688 -3.316406 3.515625 -3.484375 C 3.722656 -3.648438 3.828125 -3.867188 3.828125 -4.140625 C 3.828125 -4.316406 3.769531 -4.457031 3.65625 -4.5625 C 3.539062 -4.675781 3.359375 -4.734375 3.109375 -4.734375 C 2.785156 -4.734375 2.472656 -4.582031 2.171875 -4.28125 C 1.878906 -3.988281 1.660156 -3.570312 1.515625 -3.03125 Z M 1.515625 -3.03125 "/>
  <path id="glyph0-1" d="M 1.515625 0 L 2.859375 -6.34375 L 0.90625 -6.34375 L 1.0625 -7.140625 L 5.890625 -7.140625 L 5.734375 -6.34375 L 3.765625 -6.34375 L 2.421875 0 Z M 1.515625 0 "/>
  <path id="glyph0-0" d="M 0.9375 0 L 0.9375 -7.140625 L 5.046875 -7.140625 L 5.046875 0 Z M 1.453125 -0.515625 L 4.546875 -0.515625 L 4.546875 -6.625 L 1.453125 -6.625 Z M 1.453125 -0.515625 "/>
 </defs>
 <image width="497" xlink:href="svg/9/98_31.jpg" height="279"/>
 <g>
  <path d="M 11.414062 216.707031 L 12.757812 210.363281 L 10.804688 210.363281 L 10.960938 209.566406 L 15.789062 209.566406 L 15.632812 210.363281 L 13.664062 210.363281 L 12.320312 216.707031 Z M 11.414062 216.707031 " transform=" rotate(  340 22.2011 219.676) " style="fill:none;stroke-width:2;stroke-linecap:butt;stroke-linejoin:round;stroke:rgb(100%,100%,100%);stroke-opacity:0.6;stroke-miterlimit:10;"/>
  <path d="M 16.628906 216.800781 C 16.003906 216.800781 15.523438 216.625 15.191406 216.269531 C 14.855469 215.90625 14.691406 215.410156 14.691406 214.785156 C 14.691406 214.359375 14.746094 213.9375 14.863281 213.519531 C 14.988281 213.105469 15.164062 212.722656 15.394531 212.378906 C 15.632812 212.035156 15.917969 211.765625 16.253906 211.566406 C 16.585938 211.359375 16.957031 211.253906 17.363281 211.253906 C 17.871094 211.253906 18.253906 211.363281 18.503906 211.582031 C 18.761719 211.800781 18.894531 212.109375 18.894531 212.503906 C 18.894531 212.847656 18.785156 213.167969 18.566406 213.457031 C 18.355469 213.738281 18.019531 213.96875 17.550781 214.144531 C 17.089844 214.3125 16.496094 214.394531 15.769531 214.394531 L 15.597656 214.394531 C 15.585938 214.449219 15.582031 214.511719 15.582031 214.582031 C 15.582031 214.644531 15.582031 214.703125 15.582031 214.753906 C 15.582031 215.160156 15.679688 215.484375 15.878906 215.722656 C 16.074219 215.964844 16.378906 216.082031 16.785156 216.082031 C 17.035156 216.082031 17.273438 216.046875 17.503906 215.972656 C 17.730469 215.902344 17.980469 215.796875 18.253906 215.660156 L 18.253906 216.410156 C 17.992188 216.527344 17.742188 216.621094 17.503906 216.691406 C 17.261719 216.761719 16.972656 216.800781 16.628906 216.800781 Z M 15.722656 213.675781 L 15.800781 213.675781 C 16.195312 213.675781 16.558594 213.644531 16.894531 213.582031 C 17.238281 213.511719 17.511719 213.390625 17.722656 213.222656 C 17.929688 213.058594 18.035156 212.839844 18.035156 212.566406 C 18.035156 212.390625 17.976562 212.25 17.863281 212.144531 C 17.746094 212.03125 17.566406 211.972656 17.316406 211.972656 C 16.992188 211.972656 16.679688 212.125 16.378906 212.425781 C 16.085938 212.71875 15.867188 213.136719 15.722656 213.675781 Z M 15.722656 213.675781 " transform=" rotate(  340 22.2011 219.676) " style="fill:none;stroke-width:2;stroke-linecap:butt;stroke-linejoin:round;stroke:rgb(100%,100%,100%);stroke-opacity:0.6;stroke-miterlimit:10;"/>
  <path d="M 19.480469 216.707031 L 21.089844 209.113281 L 21.964844 209.113281 L 21.542969 211.082031 C 21.5 211.28125 21.449219 211.488281 21.386719 211.707031 C 21.324219 211.917969 21.265625 212.128906 21.214844 212.347656 L 21.261719 212.347656 C 21.394531 212.183594 21.546875 212.015625 21.714844 211.847656 C 21.890625 211.683594 22.089844 211.542969 22.308594 211.425781 C 22.535156 211.3125 22.792969 211.253906 23.074219 211.253906 C 23.488281 211.253906 23.816406 211.371094 24.058594 211.597656 C 24.308594 211.828125 24.433594 212.171875 24.433594 212.628906 C 24.433594 212.753906 24.421875 212.886719 24.402344 213.019531 C 24.378906 213.15625 24.355469 213.296875 24.324219 213.441406 L 23.621094 216.707031 L 22.746094 216.707031 L 23.449219 213.347656 C 23.511719 213.046875 23.542969 212.828125 23.542969 212.691406 C 23.542969 212.472656 23.484375 212.300781 23.371094 212.175781 C 23.265625 212.050781 23.089844 211.988281 22.839844 211.988281 C 22.609375 211.988281 22.363281 212.066406 22.105469 212.222656 C 21.84375 212.378906 21.597656 212.636719 21.371094 212.988281 C 21.152344 213.34375 20.980469 213.8125 20.855469 214.394531 L 20.355469 216.707031 Z M 19.480469 216.707031 " transform=" rotate(  340 22.2011 219.676) " style="fill:none;stroke-width:2;stroke-linecap:butt;stroke-linejoin:round;stroke:rgb(100%,100%,100%);stroke-opacity:0.6;stroke-miterlimit:10;"/>
  <path d="M 27.410156 216.800781 C 26.785156 216.800781 26.304688 216.625 25.972656 216.269531 C 25.636719 215.90625 25.472656 215.410156 25.472656 214.785156 C 25.472656 214.359375 25.527344 213.9375 25.644531 213.519531 C 25.769531 213.105469 25.945312 212.722656 26.175781 212.378906 C 26.414062 212.035156 26.699219 211.765625 27.035156 211.566406 C 27.367188 211.359375 27.738281 211.253906 28.144531 211.253906 C 28.652344 211.253906 29.035156 211.363281 29.285156 211.582031 C 29.542969 211.800781 29.675781 212.109375 29.675781 212.503906 C 29.675781 212.847656 29.566406 213.167969 29.347656 213.457031 C 29.136719 213.738281 28.800781 213.96875 28.332031 214.144531 C 27.871094 214.3125 27.277344 214.394531 26.550781 214.394531 L 26.378906 214.394531 C 26.367188 214.449219 26.363281 214.511719 26.363281 214.582031 C 26.363281 214.644531 26.363281 214.703125 26.363281 214.753906 C 26.363281 215.160156 26.460938 215.484375 26.660156 215.722656 C 26.855469 215.964844 27.160156 216.082031 27.566406 216.082031 C 27.816406 216.082031 28.054688 216.046875 28.285156 215.972656 C 28.511719 215.902344 28.761719 215.796875 29.035156 215.660156 L 29.035156 216.410156 C 28.773438 216.527344 28.523438 216.621094 28.285156 216.691406 C 28.042969 216.761719 27.753906 216.800781 27.410156 216.800781 Z M 26.503906 213.675781 L 26.582031 213.675781 C 26.976562 213.675781 27.339844 213.644531 27.675781 213.582031 C 28.019531 213.511719 28.292969 213.390625 28.503906 213.222656 C 28.710938 213.058594 28.816406 212.839844 28.816406 212.566406 C 28.816406 212.390625 28.757812 212.25 28.644531 212.144531 C 28.527344 212.03125 28.347656 211.972656 28.097656 211.972656 C 27.773438 211.972656 27.460938 212.125 27.160156 212.425781 C 26.867188 212.71875 26.648438 213.136719 26.503906 213.675781 Z M 26.503906 213.675781 " transform=" rotate(  340 22.2011 219.676) " style="fill:none;stroke-width:2;stroke-linecap:butt;stroke-linejoin:round;stroke:rgb(100%,100%,100%);stroke-opacity:0.6;stroke-miterlimit:10;"/>
  <path d="M 30.246094 216.707031 L 31.855469 209.113281 L 32.746094 209.113281 L 32.105469 212.128906 C 31.988281 212.660156 31.890625 213.074219 31.808594 213.363281 C 31.722656 213.65625 31.667969 213.847656 31.636719 213.941406 L 31.652344 213.941406 L 34.183594 211.347656 L 35.230469 211.347656 L 32.933594 213.644531 L 34.355469 216.707031 L 33.386719 216.707031 L 32.261719 214.191406 L 31.542969 214.769531 L 31.136719 216.707031 Z M 30.246094 216.707031 " transform=" rotate(  340 22.2011 219.676) " style="fill:none;stroke-width:2;stroke-linecap:butt;stroke-linejoin:round;stroke:rgb(100%,100%,100%);stroke-opacity:0.6;stroke-miterlimit:10;"/>
  <path d="M 12.71875 228.644531 L 14.234375 221.503906 L 15.125 221.503906 L 13.765625 227.847656 L 16.515625 227.847656 L 16.34375 228.644531 Z M 12.71875 228.644531 " transform=" rotate(  340 22.2011 219.676) " style="fill:none;stroke-width:2;stroke-linecap:butt;stroke-linejoin:round;stroke:rgb(100%,100%,100%);stroke-opacity:0.6;stroke-miterlimit:10;"/>
  <path d="M 19.03125 228.738281 C 18.601562 228.738281 18.253906 228.589844 17.984375 228.285156 C 17.710938 227.972656 17.578125 227.515625 17.578125 226.910156 C 17.578125 226.410156 17.640625 225.9375 17.765625 225.488281 C 17.898438 225.042969 18.082031 224.644531 18.3125 224.300781 C 18.539062 223.957031 18.816406 223.6875 19.140625 223.488281 C 19.460938 223.292969 19.816406 223.191406 20.203125 223.191406 C 20.554688 223.191406 20.84375 223.285156 21.0625 223.472656 C 21.28125 223.652344 21.441406 223.863281 21.546875 224.113281 L 21.609375 224.113281 L 21.921875 223.285156 L 22.59375 223.285156 L 21.453125 228.644531 L 20.75 228.644531 L 20.890625 227.660156 L 20.84375 227.660156 C 20.613281 227.953125 20.34375 228.207031 20.03125 228.425781 C 19.726562 228.636719 19.394531 228.738281 19.03125 228.738281 Z M 19.3125 228.019531 C 19.5625 228.019531 19.800781 227.933594 20.03125 227.753906 C 20.269531 227.566406 20.484375 227.324219 20.671875 227.019531 C 20.867188 226.707031 21.019531 226.363281 21.125 225.988281 C 21.175781 225.792969 21.207031 225.613281 21.21875 225.457031 C 21.238281 225.292969 21.25 225.136719 21.25 224.988281 C 21.25 224.675781 21.160156 224.421875 20.984375 224.222656 C 20.816406 224.027344 20.585938 223.925781 20.296875 223.925781 C 20.035156 223.925781 19.796875 224.011719 19.578125 224.175781 C 19.359375 224.332031 19.164062 224.558594 19 224.847656 C 18.832031 225.128906 18.703125 225.453125 18.609375 225.816406 C 18.515625 226.171875 18.46875 226.546875 18.46875 226.941406 C 18.46875 227.296875 18.539062 227.566406 18.6875 227.753906 C 18.832031 227.933594 19.039062 228.019531 19.3125 228.019531 Z M 19.3125 228.019531 " transform=" rotate(  340 22.2011 219.676) " style="fill:none;stroke-width:2;stroke-linecap:butt;stroke-linejoin:round;stroke:rgb(100%,100%,100%);stroke-opacity:0.6;stroke-miterlimit:10;"/>
  <path d="M 23.039062 228.644531 L 24.648438 221.050781 L 25.539062 221.050781 L 24.898438 224.066406 C 24.78125 224.597656 24.683594 225.011719 24.601562 225.300781 C 24.515625 225.59375 24.460938 225.785156 24.429688 225.878906 L 24.445312 225.878906 L 26.976562 223.285156 L 28.023438 223.285156 L 25.726562 225.582031 L 27.148438 228.644531 L 26.179688 228.644531 L 25.054688 226.128906 L 24.335938 226.707031 L 23.929688 228.644531 Z M 23.039062 228.644531 " transform=" rotate(  340 22.2011 219.676) " style="fill:none;stroke-width:2;stroke-linecap:butt;stroke-linejoin:round;stroke:rgb(100%,100%,100%);stroke-opacity:0.6;stroke-miterlimit:10;"/>
  <path d="M 29.945312 228.738281 C 29.320312 228.738281 28.839844 228.5625 28.507812 228.207031 C 28.171875 227.84375 28.007812 227.347656 28.007812 226.722656 C 28.007812 226.296875 28.0625 225.875 28.179688 225.457031 C 28.304688 225.042969 28.480469 224.660156 28.710938 224.316406 C 28.949219 223.972656 29.234375 223.703125 29.570312 223.503906 C 29.902344 223.296875 30.273438 223.191406 30.679688 223.191406 C 31.1875 223.191406 31.570312 223.300781 31.820312 223.519531 C 32.078125 223.738281 32.210938 224.046875 32.210938 224.441406 C 32.210938 224.785156 32.101562 225.105469 31.882812 225.394531 C 31.671875 225.675781 31.335938 225.90625 30.867188 226.082031 C 30.40625 226.25 29.8125 226.332031 29.085938 226.332031 L 28.914062 226.332031 C 28.902344 226.386719 28.898438 226.449219 28.898438 226.519531 C 28.898438 226.582031 28.898438 226.640625 28.898438 226.691406 C 28.898438 227.097656 28.996094 227.421875 29.195312 227.660156 C 29.390625 227.902344 29.695312 228.019531 30.101562 228.019531 C 30.351562 228.019531 30.589844 227.984375 30.820312 227.910156 C 31.046875 227.839844 31.296875 227.734375 31.570312 227.597656 L 31.570312 228.347656 C 31.308594 228.464844 31.058594 228.558594 30.820312 228.628906 C 30.578125 228.699219 30.289062 228.738281 29.945312 228.738281 Z M 29.039062 225.613281 L 29.117188 225.613281 C 29.511719 225.613281 29.875 225.582031 30.210938 225.519531 C 30.554688 225.449219 30.828125 225.328125 31.039062 225.160156 C 31.246094 224.996094 31.351562 224.777344 31.351562 224.503906 C 31.351562 224.328125 31.292969 224.1875 31.179688 224.082031 C 31.0625 223.96875 30.882812 223.910156 30.632812 223.910156 C 30.308594 223.910156 29.996094 224.0625 29.695312 224.363281 C 29.402344 224.65625 29.183594 225.074219 29.039062 225.613281 Z M 29.039062 225.613281 " transform=" rotate(  340 22.2011 219.676) " style="fill:none;stroke-width:2;stroke-linecap:butt;stroke-linejoin:round;stroke:rgb(100%,100%,100%);stroke-opacity:0.6;stroke-miterlimit:10;"/>
  <g transform=" rotate(  340 22.2011 219.676) " style="fill:rgb(30.196078%,50.196078%,70.196078%);fill-opacity:1;">
   <use xlink:href="#glyph0-1" y="216.705638" x="9.898644"/>
   <use xlink:href="#glyph0-2" y="216.705638" x="14.208644"/>
   <use xlink:href="#glyph0-3" y="216.705638" x="19.198644"/>
   <use xlink:href="#glyph0-2" y="216.705638" x="24.988644"/>
   <use xlink:href="#glyph0-4" y="216.705638" x="29.978644"/>
   <use xlink:href="#glyph0-5" y="228.645638" x="12.313644"/>
   <use xlink:href="#glyph0-6" y="228.645638" x="17.093644"/>
   <use xlink:href="#glyph0-4" y="228.645638" x="22.773644"/>
   <use xlink:href="#glyph0-2" y="228.645638" x="27.523644"/>
  </g>
 </g>
</svg>

<svg xmlns="http://www.w3.org/2000/svg" xmlns:xlink="http://www.w3.org/1999/xlink" viewBox="0 0 497 279"> <defs overflow="visible" style="stroke:none">  <path id="f" d="M2 0c-.6 0-.9 0-1.2-.3C.6-.7.5-1 .5-1.7c0-.5 0-1 .2-1.5l.5-1.1c.2-.4.5-.7.8-.9a2 2 0 0 1 1.1-.3c.4 0 .6.1.9.3l.5.7.3-.9h.7L4.4 0h-.7l.1-1c-.3.3-.5.6-.9.8-.3.2-.6.2-.9.2Zm.1-.5c.4-.1.6-.2.9-.5l.6-.6a4 4 0 0 0 .4-1 3 3 0 0 0 .1-.7 4 4 0 0 0 0-.4c.1-.3.1-.5-.1-.7-.3-.2-.5-.3-.8-.3-.3 0-.5 0-.7.2a2 2 0 0 0-.6.7l-.4 1-.1 1.1c0 .4 0 .6.2.8.1.2.3.3.6.3Zm.1-.1"/>  <path id="e" d="M.4 0 2-7.1h1L1.4-.8h2.8L4 0Zm0 0"/>  <path id="d" d="m.3 0 1.6-7.6h.9l-.8 3c.1.6 0 1-.2 1.3l-.1.5 2.5-2.6h1L3-3l1.4 3h-1L2.3-2.5l-.7.5-.4 2Zm0 0"/>  <path id="c" d="m.3 0 1.6-7.6h.9l-.5 2-.1.6-.2.6.6-.5.5-.4.9-.2c.3 0 .6.2.9.5.1 0 .3.5.3.9v.8L4.3 0h-.8l.8-3.4V-4l-.1-.5c-.2-.2-.3-.2-.6-.2-.2 0-.4 0-.6.2-.4.2-.6.5-.8.8-.2.3-.4.7-.5 1.4L1.2 0Zm0 0"/>  <path id="b" d="M2.4 0c-.6 0-1 0-1.4-.3C.6-.8.5-1.3.5-2c0-.3 0-.8.2-1.2 0-.4.3-.8.5-1.1.2-.4.5-.7.8-.8a2 2 0 0 1 1.2-.4c.5 0 .8.2 1.1.5.3 0 .4.4.4.8 0 .3-.1.7-.3 1-.4.2-.6.4-1 .6-.6.2-1.2.3-1.9.3h-.1v.3c0 .5 0 .8.3 1 .2.3.5.4.9.4l.7-.1A5 5 0 0 0 4-1v.7a6 6 0 0 1-.7.3h-.9Zm-.9-3 1.3-.1.7-.4c.2-.1.3-.4.3-.5l-.1-.6-.7-.1c-.2 0-.5.1-.9.4L1.6-3Zm0 0"/>  <path id="a" d="M1.5 0 3-6.3H.9l.2-.8h4.8l-.2.8h-2L2.5 0Zm0 0"/>  <path d="M1 0v-7.1h4V0Zm.4-.5h3.1v-6.1h-3Zm.1 0"/> </defs> <image xlink:href="svg/9/98_31.jpg" width="497" height="279"/> <path d="m11.4 216.7 1.4-6.3h-2l.2-.8h4.8l-.2.8h-2l-1.2 6.3Zm5.2.1c-.6 0-1-.2-1.4-.5-.3-.4-.5-.9-.5-1.5 0-.4 0-.9.2-1.3 0-.4.3-.8.5-1.1.2-.4.5-.6.9-.8a2 2 0 0 1 1-.3c.7 0 1.1 0 1.3.3.2.2.3.4.3.9 0 .3-.1.7-.3 1-.2.2-.6.5-1 .5-.6.3-1.1.4-1.8.4h-.2v.4c0 .4 0 .7.3 1 .1.2.5.2.9.2h.7a5 5 0 0 0 .8-.3v.7a6 6 0 0 1-.8.3l-.9.1Zm-.9-3.1h.1l1-.1c.5 0 .8-.2 1.1-.4l.1-.6v-.6h-.7c-.3 0-.6 0-1 .4l-.5 1.3Zm3.8 3 1.5-7.6h1l-.5 2-.1.6-.2.6.6-.5.5-.4.8-.1c.4 0 .7 0 .9.3.3.2.4.6.4 1v.8l-.9 3.3h-.8l.7-3.4.1-.6-.1-.5-.6-.2c-.2 0-.4 0-.7.2-.3.2-.5.4-.7.8-.2.3-.4.8-.5 1.4l-.5 2.3Zm7.9.1c-.6 0-1.1-.2-1.4-.5-.4-.4-.5-.9-.5-1.5l.1-1.3c.2-.4.4-.8.6-1.1.2-.4.5-.6.8-.8a2 2 0 0 1 1.1-.3c.6 0 1 0 1.2.3.2.2.4.4.4.9 0 .3-.1.7-.4 1-.2.2-.5.5-1 .5-.3.3-1 .4-1.7.4h-.2v.4c0 .4 0 .7.3 1 .2.2.5.2.9.2h.7a5 5 0 0 0 .7-.3v.7a6 6 0 0 1-.7.3l-.9.1Zm-.9-3.1 1.3-.1c.2 0 .5-.2.7-.4.2-.1.3-.4.3-.6 0-.2 0-.3-.2-.6h-.5c-.3 0-.6 0-1 .4-.1.3-.4.7-.5 1.3Zm3.7 3 1.8-7.6h.7l-.6 3-.3 1.3c0 .3-.1.4-.2.5l2.7-2.6h.9l-2.2 2.3 1.4 3.1h-1l-1.1-2.5-.8.6-.4 2Zm-17.5 11.9 1.5-7.1h1l-1.5 6.3h2.8l-.2.8Zm6.3.1c-.4 0-.7-.1-1-.4-.3-.3-.4-.8-.4-1.4 0-.5 0-.9.2-1.4l.5-1.2.8-.8a2 2 0 0 1 1.1-.3c.4 0 .6 0 .9.3l.4.5h.1l.4-.7h.6l-1.1 5.3h-.8l.3-1-1 .9c-.3.1-.6.2-1 .2Zm.3-.7c.3 0 .5 0 .7-.2l.7-.8a4 4 0 0 0 .3-1 3 3 0 0 0 .2-.5 4 4 0 0 0 0-.5c.1-.3.1-.6-.2-.8-.2-.2-.4-.2-.7-.2-.3 0-.5 0-.7.2a2 2 0 0 0-.6.6l-.4 1-.1 1.2c0 .3 0 .6.2.8l.6.2Zm3.7.6 1.6-7.5h1l-.8 2.9-.2 1.3-.2.6 2.6-2.6h1l-2.3 2.3 1.4 3h-1l-.9-2.5-.9.6-.3 2Zm7 .1c-.8 0-1.3-.1-1.6-.5-.2-.4-.4-.9-.4-1.5 0-.4 0-.7.2-1.2l.5-1.2c.3-.3.5-.6.9-.8a2 2 0 0 1 1-.3c.7 0 1.1.1 1.3.3.2.2.3.5.3 1l-.2.8c-.3.4-.7.6-1.1.7-.5.3-1 .3-1.9.3h-.1v.4c0 .3.1.7.3 1 .2.2.5.3.9.3h.7a5 5 0 0 0 .8-.5v.8a6 6 0 0 1-.8.3l-.8.1Zm-1-3h.1l1.1-.3c.4.1.6-.1.8-.2.2-.2.4-.4.4-.7l-.2-.4-.6-.2c-.3.1-.6.2-.9.5-.3.3-.5.6-.7 1.2Zm0-.1" style="fill:none;stroke-width:2;stroke-linecap:butt;stroke-linejoin:round;stroke:#fff;stroke-opacity:.6;stroke-miterlimit:10" transform=" rotate(  340 22.2011 219.676) "/> <g style="fill:#4d80b3;fill-opacity:1" transform=" rotate(  340 22.2011 219.676) ">  <use xlink:href="#a" x="9.9" y="216.7"/>  <use xlink:href="#b" x="14.2" y="216.7"/>  <use xlink:href="#c" x="19.2" y="216.7"/>  <use xlink:href="#b" x="25" y="216.7"/>  <use xlink:href="#d" x="30" y="216.7"/>  <use xlink:href="#e" x="12.3" y="228.6"/>  <use xlink:href="#f" x="17.1" y="228.6"/>  <use xlink:href="#d" x="22.8" y="228.6"/>  <use xlink:href="#b" x="27.5" y="228.6"/> </g></svg>
